X:1
T:The sinner’s lips, with curses fraught
T:The sinner’s lips, with curses fraught (Osborne Wight)
C:Osborne Wight
Z:p34, W. D. Tattersall,
Z:Improved Psalmody,
Z:London: (1794)
%%score [ 1 2 3 ]
L:1/8
M:4/4
K:C
V:1 treble nm="Soprano"
V:2 treble nm="Alto"
V:3 bass nm="Bass"
V:1
"^Not too slow" G2 | c4 e4 | A6 (Bc) | f4 (e2 d2) | e6 G2 | A6 B2 | c4 d4 | (e2 fg) (f2 e2) | %8
w: 3.~What,|Lord, his|fu- ry _|shall with- *|stand, Or|save them|from the|mur- * * th’rous _|
w: 1.~The|sin- ner’s|lips, with _|cur- ses _|fraught, Words|ill ac-|cord- ing|to _ _ his _|
w: 2.~As,|couched with-|in his _|bu- shy _|lair, The|li- on|fierce with|hi- * * deous _|
 (e4 d2) c2 | B4 G4 | c6 e2 | d6 c2 | B4 (A2 B2) | c4 (B2 A2) | (G2 ^F2) (G2 A2) | B4 TA4 | %16
w: band _ That,|leagued in|sin, as-|sist his|toil, And _|share with _|him _ the _|guil- ty|
w: thought _ Have|ut- tered,|and be-|neath his|tongue Lurk _|fraud, and _|vi- * o- *|lence, and|
w: glare _ A-|round him|casts his|wide sur-|vey, And _|me- di- *|tates _ the _|fu- ture|
 !fermata!G4 ||[K:Cmin]!p! G4 | G4 G4 | G4 G4 | e4 (d2 c2) | (c4 =B2) B2 | c4 B4 | A4 G4 | c6 c2 | %25
w: spoil?|“Shall|Heav’n’s high|Lord,” he|cries, “des- *|cend, _ The|hu- man|ac- tions|to at-|
w: wrong.|Be-|side the|so- li-|ta- ry _|way, _ In-|tent the|help- less|poor to|
w: prey;|So|longs the|man of|blood to _|seize _ The|souls that|own thy|just de-|
 =B4 (G2 F2) | E4 A4 | F4 B4 | G4 c4 | (c4 =B2) d2 | g4 (f2 e2) | d4 c4 | d4 (c2 =B2) | c8 :: %34
w: tend? The _|paths by|me at|will pur-|sued, _ His|mem- ’ry _|and his|thought e- *|lude.”|
w: slay, He _|waits; and|with ma-|lig- nant|eye, _ In-|si- dious _|marks each|pass- er _|by.|
w: crees; When _|plant- ed|with suc-|cess- ful|care _ His|nets their _|cap- tive|feet en- *|snare.|
[K:C]!f!"^With Spirit" c4 (CD)(EF) | G6 E2 | (FEFG AG)(AB) | c6!p! e2 | f4 e4 | d4 c4 | c4 f4 | %41
w: |||||||
w: 4.\_Rise, migh- * tiest _|Lord, and|lift _ _ _ _ _ thine _|hand, Nor|let the|in- jured|poor de-|
w: 5.\_Why should _ the _|souls, who|thee _ _ _ _ _ de- *|fy, With|im- pious|tongue re-|proach- ful|
 (e4 d2) d2 | g4 f4 | e4 c4 | f4 (e2 d2) | (c4 B2)!f! c2 | A4 A4 | (G2 B2) c4 | d4 (e2 f2) | e8 :| %50
w: |||||||||
w: mand _ Thy|sav- ing|aid with|fruit- less _|prayer, _ But|guard them|with _ thy|fost- ’ring _|care.|
w: cry, _ “’Tis|not with-|in th’Al-|migh- ty’s _|plan _ To|scru- tin-|ize _ the|acts of _|Man”?|
V:2
 E2 | G4 G4 | (F2 c4) c2 | c4 B4 | c6 c2 | c4 F4 | E4 B4 | (c2 de) (d2 c2) | (c4 B2) A2 | G4 G4 | %10
w: 3.~What,|Lord, his|fu- * ry|shall with-|stand, Or|save them|from the|mur- * * th’rous _|band _ That,|leagued in|
w: 1.~The|sin- ner’s|lips, _ with|cur- ses|fraught, Words|ill ac-|cord- ing|to _ _ his _|thought _ Have|ut- tered,|
w: 2.~As,|couched with-|in _ his|bu- shy|lair, The|li- on|fierce with|hi- * * deous _|glare _ A-|round him|
 G4 G4 | ^F4 (G2 A2) | G4 A4 | G4 E4 | D4 G4 | G4 ^F4 | !fermata!G4 ||[K:Cmin]!p! D4 | E4 D4 | %19
w: sin, as-|sist his _|toil, And|share with|him the|guil- ty|spoil?|“Shall|Heav’n’s high|
w: and be-|neath his _|tongue Lurk|fraud, and|vi- o-|lence, and|wrong.|Be-|side the|
w: casts his|wide sur- *|vey, And|me- di-|tates the|fu- ture|prey;|So|longs the|
 F4 E4 | G4 (F2 E2) | (E4 D2) G2 | G4 F4 | E4 D4 | (C2 D2) (E2 F2) | G4 D4 | C6 E2 | D6 F2 | %28
w: Lord,” he|cries, “des- *|cend, _ The|hu- man|ac- tions|to _ at- *|tend? The|paths by|me at|
w: so- li-|ta- ry _|way, _ In-|tent the|help- less|poor _ to _|slay, He|waits; and|with ma-|
w: man of|blood to _|seize _ The|souls that|own thy|just _ de- *|crees; When|plant- ed|with suc-|
 E4 E4 | D6 =B2 | c4 (=B2 c2) | A4 G4 | A4 (G2 F2) | E8 ::[K:C]!f! c4 (CD)(EF) | G6 E2 | %36
w: will pur-|sued, His|mem- ’ry _|and his|thought e- *|lude.”|||
w: lig- nant|eye, In-|si- dious _|marks each|pass- er _|by.|4.\_Rise, migh- * tiest _|Lord, and|
w: cess- ful|care His|nets their _|cap- tive|feet en- *|snare.|5.~Why should _ the _|souls, who|
 (FEFG AG)(AB) | c6!p! c2 | c4 c4 | (A2 B2) (c2 G2) | A4 d4 | (c4 B2) B2 | (c2 G2) (A2 B2) | %43
w: |||||||
w: lift _ _ _ _ _ thine _|hand, Nor|let the|in- * jured _|poor de-|mand _ Thy|sav- * ing _|
w: thee _ _ _ _ _ de- *|fy, With|im- pious|tongue _ re- *|proach- ful|cry, _ “’Tis|not _ with- *|
 c4 c4 | c4 A4 | G6!f! G2 | F4 F4 | F4 (E2 c2) | c4 B4 | c8 :| %50
w: |||||||
w: aid with|fruit- less|prayer, But|guard them|with thy _|fost- ’ring|care.|
w: in th’Al-|migh- ty’s|plan To|scru- tin-|ize the _|acts of|Man”?|
V:3
 C,2 | E,4 C,4 | F,6 E,2 | D,4 G,,4 | C,6 E,2 | F,4 G,4 | A,4 G,4 | C4 F,4 | G,6 G,2 | %9
w: 3.~What,|Lord, his|fu- ry|shall with-|stand, Or|save them|from the|mur- th’rous|band That,|
w: 1.~The|sin- ner’s|lips, with|cur- ses|fraught, Words|ill ac-|cord- ing|to his|thought Have|
w: 2.~As,|couched with-|in his|bu- shy|lair, The|li- on|fierce with|hi- deous|glare A-|
"^Emendations: Last note originally a minim in all parts." G,4 F,4 | E,6 C,2 | D,4 (E,2 ^F,2) | %12
w: leagued in|sin, as-|sist his _|
w: ut- tered,|and be-|neath his _|
w: round him|casts his|wide sur- *|
 G,4 ^F,4 | E,4 C,4 | (D,2 C,2) (B,,2 C,2) | D,4 D,4 | !fermata!G,,4 ||[K:Cmin]!p! =B,,4 | %18
w: toil, And|share with|him _ the _|guil- ty|spoil?|“Shall|
w: tongue Lurk|fraud, and|vi- * o- *|lence, and|wrong.|Be-|
w: vey, And|me- di-|tates _ the _|fu- ture|prey;|So|
 C,4 =B,,4 | D,4 C,4 | C,4 F,,4 | G,,6 G,2 | E,4 D,4 | C,4 B,,4 | A,,6 A,,2 | G,,4 G,,4 | C,6 C,2 | %27
w: Heav’n’s high|Lord,” he|cries, “des-|cend, The|hu- man|ac- tions|to at-|tend? The|paths by|
w: side the|so- li-|ta- ry|way, In-|tent the|help- less|poor to|slay, He|waits; and|
w: longs the|man of|blood to|seize The|souls that|own thy|just de-|crees; When|plant- ed|
 D,6 D,2 | E,4 C,4 | G,6 F,2 | E,4 (D,2 C,2) | F,4 E,4 | F,4 G,4 | C,8 ::[K:C]!f! C4 (C,D,)(E,F,) | %35
w: me at|will pur-|sued, His|mem- ’ry _|and his|thought e-|lude.”||
w: with ma-|lig- nant|eye, In-|si- dious _|marks each|pass- er|by.|4.\_Rise, migh- * tiest _|
w: with suc-|cess- ful|care His|nets their _|cap- tive|feet en-|snare.|5.~Why should _ the _|
 G,6 E,2 | (F,E,F,G, A,G,)(A,B,) | C6!p! _B,2 | A,4 G,4 | F,4 E,4 | F,4 D,4 | G,6 F,2 | E,4 D,4 | %43
w: ||||||||
w: Lord, and|lift _ _ _ _ _ thine _|hand, Nor|let the|in- jured|poor de-|mand Thy|sav- ing|
w: souls, who|thee _ _ _ _ _ de- *|fy, With|im- pious|tongue re-|proach- ful|cry, “’Tis|not with-|
 C,6 _B,,2 | A,,4 F,,4 | G,,6!f! E,2 | (F,G,A,G, F,E,)(D,C,) | (B,,2 G,,2) (C,2 E,2) | F,4 G,4 | %49
w: ||||||
w: aid with|fruit- less|prayer, But|guard _ _ _ _ _ them _|with _ thy _|fost- ’ring|
w: in th’Al-|migh- ty’s|plan To|scru- * * * * * tin- *|ize _ the _|acts of|
 C,8 :| %50
w: |
w: care.|
w: Man”?|

